icons/sign.svg

<svg width="24" height="24" viewBox="0 0 24 24" xmlns="http://www.w3.org/2000/svg">
    <path fill-rule="evenodd"
        d="M18.1961 5.02477C17.8591 4.68771 17.3127 4.68771 16.9757 5.02477L14.7197 7.2806L16.7148 9.28629L18.6267 7.37458L18.9754 7.02579C19.3126 6.68846 19.3126 6.14164 18.9754 5.80431L18.1961 5.02477ZM15.3005 10.7004L13.3054 8.69474L5.39129 16.608C5.14075 16.8585 5 17.1983 5 17.5526V19H6.44667C6.80091 19 7.14064 18.8593 7.39114 18.6088L15.3005 10.7004ZM11.8915 7.28022L3.97716 15.1937C3.3515 15.8193 3 16.6678 3 17.5526V19.4161C3 20.2909 3.70916 21 4.58394 21H6.44667C7.3313 21 8.1797 20.6486 8.80527 20.0231L20.0411 8.7886L20.3898 8.43981C21.5078 7.32148 21.5078 5.50863 20.3898 4.39029L19.6105 3.61075C18.4924 2.49238 16.6794 2.49238 15.5613 3.61075L13.3057 5.86608L12.6582 5.2185L12.6029 5.17677C12.2457 4.90677 11.6555 4.59471 10.9678 4.50048C10.2424 4.40105 9.37158 4.54672 8.65085 5.26745L5.29289 8.62542L6.70711 10.0396L10.0651 6.68166C10.2542 6.49257 10.4536 6.4487 10.6963 6.48196C10.9488 6.51656 11.1976 6.63578 11.35 6.73881L11.8915 7.28022ZM14 19H21V21H14V19Z" />
</svg>

<svg xmlns="http://www.w3.org/2000/svg" width="24" height="24" viewBox="0 0 24 24">
    <path
        d="M18.196 5.025c-.337-.337-.883-.337-1.22 0L14.72 7.28l1.995 2.005 1.912-1.911.348-.35c.338-.337.338-.883 0-1.22l-.779-.78zM15.3 10.7l-1.995-2.005-7.914 7.913c-.25.25-.391.59-.391.945V19h1.447c.354 0 .694-.14.944-.391l7.91-7.909zm-3.409-3.42l-7.914 7.914C3.352 15.819 3 16.668 3 17.553v1.863C3 20.291 3.71 21 4.584 21h1.863c.884 0 1.733-.351 2.358-.977L20.041 8.79l.349-.35c1.118-1.118 1.118-2.93 0-4.049l-.78-.78c-1.118-1.118-2.93-1.118-4.049 0l-2.255 2.256-.648-.647-.055-.042c-.357-.27-.947-.582-1.635-.677-.726-.099-1.596.047-2.317.767L5.293 8.625l1.414 1.415 3.358-3.358c.19-.19.389-.233.631-.2.253.035.502.154.654.257l.542.541zM14 19h7v2h-7v-2z" />
</svg>
